X:322
T:Saint Anne's
Z: id:dc-reel-300
M:C
L:1/8
K:D Major
de|fedf edBd|A2FA DAFA|B2GB EBGB|A2FA DAde|!
fedf edBd|A2FA DAFA|BGBd cABc|d2fe d2:|!
ag|f2fe fedf|aggf g3f|edcB ABce|baa^g a2a=g|!
f2fe fedf|aggf g3f|edcB ABce|d2fe d2:|!

